icons/fill-new-symbol-stack.svg

<svg xmlns="http://www.w3.org/2000/svg" width="32px" height="32px" viewBox="0 0 32 32" version="1.1">
    <title>fill-new-symbol-stack</title>
    <g id="fill-new-symbol-stack" stroke-width="1" fill-rule="evenodd">
        <path d="M28.8637789,21.496129 C29.1420592,21.9731809 28.9809229,22.5854986 28.503871,22.8637789 L16.503871,29.8637789 C16.1925085,30.045407 15.8074915,30.045407 15.496129,29.8637789 L3.49612897,22.8637789 C3.01907706,22.5854986 2.85794082,21.9731809 3.1362211,21.496129 C3.41450138,21.0190771 4.02681911,20.8579408 4.50387103,21.1362211 L16,27.842 L27.496129,21.1362211 C27.9731809,20.8579408 28.5854986,21.0190771 28.8637789,21.496129 Z M28.8637789,15.496129 C29.1420592,15.9731809 28.9809229,16.5854986 28.503871,16.8637789 L16.503871,23.8637789 C16.1925085,24.045407 15.8074915,24.045407 15.496129,23.8637789 L3.49612897,16.8637789 C3.01907706,16.5854986 2.85794082,15.9731809 3.1362211,15.496129 C3.41450138,15.0190771 4.02681911,14.8579408 4.50387103,15.1362211 L16,21.842 L27.496129,15.1362211 C27.9731809,14.8579408 28.5854986,15.0190771 28.8637789,15.496129 Z M15.5038611,2.28350796 C15.8112937,2.10783215 16.1887063,2.10783215 16.4961389,2.28350796 L28.4805745,9.13175686 C28.6356058,9.22034616 28.7640894,9.34882978 28.8526787,9.50386106 C29.1266887,9.98337851 28.9600919,10.5942332 28.4805745,10.8682431 L16.4961389,17.716492 C16.1887063,17.8921678 15.8112937,17.8921678 15.5038611,17.716492 L3.5194255,10.8682431 C3.36439422,10.7796538 3.2359106,10.6511702 3.14732129,10.4961389 C2.87331133,10.0166215 3.03990805,9.40576683 3.5194255,9.13175686 L15.5038611,2.28350796 Z" id="&#24418;&#29366;" fill-rule="nonzero" />
    </g>
</svg>

<svg xmlns="http://www.w3.org/2000/svg" viewBox="0 0 32 32"><path fill="currentColor" d="M28.864 21.496a1 1 0 0 1-.36 1.368l-12 7a1 1 0 0 1-1.008 0l-12-7a1 1 0 1 1 1.008-1.728L16 27.842l11.496-6.706a1 1 0 0 1 1.368.36m0-6a1 1 0 0 1-.36 1.368l-12 7a1 1 0 0 1-1.008 0l-12-7a1 1 0 1 1 1.008-1.728L16 21.842l11.496-6.706a1 1 0 0 1 1.368.36M15.504 2.284a1 1 0 0 1 .992 0l11.985 6.848a1 1 0 0 1 0 1.736l-11.985 6.848a1 1 0 0 1-.992 0L3.519 10.868a1 1 0 0 1 0-1.736z"/></svg>
